public/.tmp/assets/graphics/icons/animacao.svg

<svg id="Layer_1" xmlns="http://www.w3.org/2000/svg" viewBox="0 0 18.3 24"><style>.st0{fill:#fff}</style><path class="st0" d="M7.5 3.6c2.1 3 4.1 6 6.2 9 .6-.4 1.3-.9 1.9-1.3-2.1-3-4.1-6-6.2-9-.6.4-1.2.9-1.9 1.3zm5.8 9.4C10.1 11.1 7 9.3 3.9 7.4c-.4.7-.8 1.3-1.2 2 3.1 1.9 6.3 3.7 9.4 5.6.4-.7.8-1.4 1.2-2zm3.2-13c-.8.1-1.5.3-2.3.4L16 11.2c.8-.1 1.5-.3 2.3-.4L16.5 0zm-4.6 15.6c-3.5-1-7-1.9-10.6-2.8-.2.8-.4 1.5-.6 2.3 3.5.9 7 1.9 10.6 2.8.2-.8.4-1.5.6-2.3zm-1 6.1H0V24h10.9v-2.3zm.3-3c-3.6-.3-7.3-.7-10.9-1-.1.8-.1 1.6-.2 2.3 3.6.3 7.3.7 10.9 1 .1-.8.1-1.5.2-2.3zm0 0"/></svg>

<?xml version="1.0" encoding="utf-8"?>
<!-- Generator: Adobe Illustrator 19.2.1, SVG Export Plug-In . SVG Version: 6.00 Build 0)  -->
<svg version="1.1" id="Layer_1" xmlns="http://www.w3.org/2000/svg" xmlns:xlink="http://www.w3.org/1999/xlink" x="0px" y="0px"
	 viewBox="0 0 18.3 24" style="enable-background:new 0 0 18.3 24;" xml:space="preserve">
<style type="text/css">
	.st0{fill:#FFFFFF;}
</style>
<g>
	<path class="st0" d="M7.5,3.6c2.1,3,4.1,6,6.2,9c0.6-0.4,1.3-0.9,1.9-1.3c-2.1-3-4.1-6-6.2-9C8.8,2.7,8.2,3.2,7.5,3.6L7.5,3.6z
		 M13.3,13C10.1,11.1,7,9.3,3.9,7.4c-0.4,0.7-0.8,1.3-1.2,2c3.1,1.9,6.3,3.7,9.4,5.6C12.5,14.3,12.9,13.6,13.3,13L13.3,13z M16.5,0
		c-0.8,0.1-1.5,0.3-2.3,0.4C14.8,4,15.4,7.6,16,11.2c0.8-0.1,1.5-0.3,2.3-0.4C17.7,7.2,17.1,3.6,16.5,0L16.5,0z M11.9,15.6
		c-3.5-1-7-1.9-10.6-2.8c-0.2,0.8-0.4,1.5-0.6,2.3c3.5,0.9,7,1.9,10.6,2.8C11.5,17.1,11.7,16.4,11.9,15.6L11.9,15.6z M10.9,21.7H0
		V24h10.9V21.7z M11.2,18.7c-3.6-0.3-7.3-0.7-10.9-1c-0.1,0.8-0.1,1.6-0.2,2.3c3.6,0.3,7.3,0.7,10.9,1
		C11.1,20.2,11.1,19.5,11.2,18.7L11.2,18.7z M11.2,18.7"/>
</g>
</svg>
